svgs/sharp-regular/mobile-retro.svg

<svg xmlns="http://www.w3.org/2000/svg" viewBox="0 0 320 512"><!--! Font Awesome Pro 6.6.0 by @fontawesome - https://fontawesome.com License - https://fontawesome.com/license (Commercial License) Copyright 2024 Fonticons, Inc. --><path d="M272 48l0 416L48 464 48 48l224 0zM48 0L0 0 0 48 0 464l0 48 48 0 224 0 48 0 0-48 0-416 0-48L272 0 48 0zM80 128l0 128 160 0 0-128L80 128zm48-64l-16 0 0 32 16 0 64 0 16 0 0-32-16 0-64 0zM72 304l0 48 48 0 0-48-48 0zm48 80l-48 0 0 48 48 0 0-48zm16-80l0 48 48 0 0-48-48 0zm48 80l-48 0 0 48 48 0 0-48zm16-80l0 48 48 0 0-48-48 0zm48 80l-48 0 0 48 48 0 0-48z"/></svg>

<svg xmlns="http://www.w3.org/2000/svg" viewBox="0 0 320 512"><!--! Font Awesome Pro 6.4.2 by @fontawesome - https://fontawesome.com License - https://fontawesome.com/license (Commercial License) Copyright 2023 Fonticons, Inc. --><path d="M272 48V464H48V48H272zM48 0H0V48 464v48H48 272h48V464 48 0H272 48zM80 128V256H240V128H80zm48-64H112V96h16 64 16V64H192 128zM72 304v48h48V304H72zm48 80H72v48h48V384zm16-80v48h48V304H136zm48 80H136v48h48V384zm16-80v48h48V304H200zm48 80H200v48h48V384z"/></svg>
